X:1
T:Biljana
O:Macedoine
M:3/4
L:1/4
Q:1/4=100
K:C
a f g | a f g | a2 g/f/ | e3 |
g g f | e c d | e2 d | c3 :|
C E F | G2 G | A2 B | c2 c |
e2 d | c B c | d c A | G3 |
|: A F G | A F G | A2 G/F/ | E3 |
G G F | E C D | E2 D | C3 :|
